!!!COM: Beethoven
!!!OTL: 13 Variationen uber "Es war einmal ein alter Mann" aus "Das rote Kappchen" von K. Ditters von Dittersdorf
!!!Variation: Variation 6 d
**kern	**harm	**kern	**kern	**kern
*M2/4	*M2/4	*staff3	*staff2	*staff1
*tb8	*	*clefF4	*clefF4	*clefG2
*	*	*k[f#c#g#]	*k[f#c#g#]	*k[f#c#g#]
*	*	*M2/4	*M2/4	*M2/4
*	*	*A:	*A:	*A:
4P	4iv/v	(8AAL	2r	(8cL
.	.	8EJ	.	8eJ
4D	4viio64/v	8AAL	.	4d#
.	.	8F#J	.	.
=	=	=235	=235	=235
2T	2i6/v	8GGL	2r	8f#L
.	.	8GJ	.	8eJ
.	.	8EL	.	8g)
.	.	8GGJ)	.	8r
=	=	=236	=236	=236
4T	4iv/v	(8AAL	2r	(8cL
.	.	8EJ	.	8eJ
4T	4viio64/v	8AAL	.	4d#
.	.	8F#J	.	.
=	=	=237	=237	=237
2T	2i6/v	8GGL	2r	8f#L
.	.	8GJ	.	8eJ
.	.	8EL	.	8b)
.	.	8GGJ)	.	8r
=	=	=238	=238	=238
4T	4iv/v	(8AAL	2r	(8cL
.	.	8EJ	.	8eJ
4T	4viio64/v	8AAL	.	4d#
.	.	8F#J	.	.
=T	=	=239	=239	=239
2T	2i6/v	8GGL	2r	8f#L
.	.	8GJ	.	8eJ
.	.	8EL	.	8g)
.	.	8GGJ)	.	8r
=	=	=240	=240	=240
4T	4iv/v	(8AAL	2r	(8cL
.	.	8GJ	.	8eJ
4T	4viio64/v	8AAL	.	4d#
.	.	8F#J	.	.
=	=	=241	=241	=241
4T	4viio7/V/v	8AA#L	2r	8eL
.	.	8GJ	.	8gJ
4D	4V7/v	8BBL	.	4d#
.	.	8F#J 8A	.	.
=	=	=242	=242	=242
4D	4i64/v	8BBL	2r	8eL
.	.	8EJ 8G	.	8bJ
4D	4V7/v	8BBL	.	4d#
.	.	8F#J 8A	.	.
=	=	=243	=243	=243
2D	2i64/v	2BB)	4r	(4e'
.	.	.	4E 4G	4b')
=	=	=244	=244	=244
2D	2V7/v	2BB	4r	2d#
.	.	.	4F# 4A	.
=	=	=245	=245	=245
2D	2r	2r;	2r;	2r;
=	=	=246	=246	=246
2T	2i/V	(2E	2r	(2e
=	=	=247	=247	=247
*-	*-	*-	*-	*-
